icons/svg/brightness-5.svg

<svg xmlns="http://www.w3.org/2000/svg" version="1.1" baseProfile="full" width="24" height="24" viewBox="0 0 24.00 24.00" xml:space="preserve"><path fill="#000" fill-opacity="1" stroke-linejoin="round" d="M12 18c-3.31 0-6-2.69-6-6s2.69-6 6-6 6 2.69 6 6-2.69 6-6 6zm8-2.69L23.31 12 20 8.69V4h-4.69L12 .69 8.69 4H4v4.69L.69 12 4 15.31V20h4.69L12 23.31 15.31 20H20v-4.69z"/></svg>

﻿<?xml version="1.0" encoding="utf-8"?>
<!DOCTYPE svg PUBLIC "-//W3C//DTD SVG 1.1//EN" "http://www.w3.org/Graphics/SVG/1.1/DTD/svg11.dtd">
<svg xmlns="http://www.w3.org/2000/svg" xmlns:xlink="http://www.w3.org/1999/xlink" version="1.1" baseProfile="full" width="24" height="24" viewBox="0 0 24.00 24.00" enable-background="new 0 0 24.00 24.00" xml:space="preserve">
	<path fill="#000000" fill-opacity="1" stroke-linejoin="round" d="M 12,18C 8.69,18 6,15.31 6,12C 6,8.69 8.69,6 12,6C 15.31,6 18,8.69 18,12C 18,15.31 15.31,18 12,18 Z M 20,15.31L 23.31,12L 20,8.69L 20,4L 15.31,4L 12,0.690002L 8.69,4L 4,4L 4,8.69L 0.69,12L 4,15.31L 4,20L 8.69,20L 12,23.31L 15.31,20L 20,20L 20,15.31 Z "/>
</svg>
